dist/img/location.svg

<svg width="18" height="18" viewBox="0 0 18 18" fill="none" xmlns="http://www.w3.org/2000/svg">
<path d="M9 1.125C5.90186 1.125 3.375 3.65186 3.375 6.75C3.375 7.62012 3.73096 8.57373 4.22314 9.58008C4.71533 10.5908 5.35693 11.6455 6.00293 12.6079C7.28613 14.5371 8.56494 16.106 8.56494 16.106L9 16.6421L9.43506 16.106C9.43506 16.106 10.7139 14.5371 12.0015 12.6079C12.6431 11.6455 13.2847 10.5908 13.7769 9.58008C14.269 8.57373 14.625 7.62012 14.625 6.75C14.625 3.65186 12.0981 1.125 9 1.125ZM9 2.25C11.4917 2.25 13.5 4.2583 13.5 6.75C13.5 7.27734 13.2231 8.15186 12.7661 9.08789C12.3091 10.0283 11.6851 11.0479 11.0654 11.9883C10.0327 13.5352 9.32959 14.3877 9 14.8008C8.67041 14.3877 7.96729 13.5352 6.93457 11.9883C6.31494 11.0479 5.69092 10.0283 5.23389 9.08789C4.77686 8.15186 4.5 7.27734 4.5 6.75C4.5 4.2583 6.5083 2.25 9 2.25ZM9 5.625C8.38037 5.625 7.875 6.13037 7.875 6.75C7.875 7.36963 8.38037 7.875 9 7.875C9.61963 7.875 10.125 7.36963 10.125 6.75C10.125 6.13037 9.61963 5.625 9 5.625Z" fill="#E12025"/>
</svg>

<svg xmlns="http://www.w3.org/2000/svg" fill="none" viewBox="0 0 18 18"><path fill="#E12025" d="M9 1.125A5.636 5.636 0 003.375 6.75c0 .87.356 1.824.848 2.83.492 1.01 1.134 2.066 1.78 3.028 1.283 1.93 2.562 3.498 2.562 3.498l.435.536.435-.536s1.279-1.569 2.566-3.498c.642-.963 1.284-2.017 1.776-3.028.492-1.006.848-1.96.848-2.83A5.636 5.636 0 009 1.125zM9 2.25c2.492 0 4.5 2.008 4.5 4.5 0 .527-.277 1.402-.734 2.338-.457.94-1.08 1.96-1.7 2.9-1.033 1.547-1.736 2.4-2.066 2.813-.33-.413-1.033-1.266-2.065-2.813-.62-.94-1.244-1.96-1.701-2.9-.457-.936-.734-1.81-.734-2.338 0-2.492 2.008-4.5 4.5-4.5zm0 3.375c-.62 0-1.125.505-1.125 1.125S8.38 7.875 9 7.875s1.125-.505 1.125-1.125S9.62 5.625 9 5.625z"/></svg>
